X: 1
T: Siebenschritt  [F]
O: Germany, Austria
R: polka
Z: 2009 John Chambers <jc:trillian.mit.edu>
M: 2/4
L: 1/16
K: F
[| "F"C2F2 F2F2 | "C7"E2EG "F"F2z2 \
|  "F"C2A2 A2A2 | "C7"G2GB "F"A2z2 |]
|: "F"c2c2 "Bb"d2z2 | "C7"B2B2 "F"c2z2 \
| "Dm"A2A2 "Gm"B2B2 |1 "C7"G2G2 "F"A2z2 :|2 "C7"G2G2 "F"F2z2 :|


